static/img/menus/ico-err.svg

<svg width="16" height="16" viewBox="0 0 16 16" fill="none" xmlns="http://www.w3.org/2000/svg">
<g clip-path="url(#clip0_307_3)">
<path d="M8 15C11.866 15 15 11.866 15 8C15 4.13401 11.866 1 8 1C4.13401 1 1 4.13401 1 8C1 11.866 4.13401 15 8 15Z" fill="#FF6F00"/>
<path d="M7.2008 4.80003C7.19868 4.5816 7.27863 4.37034 7.42481 4.20803C7.58427 4.0695 7.78962 3.99534 8.0008 4.00003C8.20747 3.99352 8.40849 4.06818 8.5608 4.20803C8.68506 4.32906 8.76888 4.48553 8.8008 4.65603V8.16003C8.80184 8.26256 8.78097 8.36414 8.73958 8.45796C8.69819 8.55177 8.63724 8.63567 8.5608 8.70403C8.51828 8.75721 8.46998 8.8055 8.4168 8.84803C8.26 8.94137 8.07588 8.978 7.89529 8.95179C7.7147 8.92557 7.5486 8.8381 7.42481 8.70403C7.3523 8.63345 7.29501 8.54878 7.25648 8.45522C7.21796 8.36166 7.19901 8.26119 7.2008 8.16003V4.80003ZM8.0008 9.92003C8.20747 9.91352 8.40849 9.98818 8.5608 10.128C8.67289 10.2367 8.75076 10.3757 8.7848 10.528C8.79222 10.5433 8.7976 10.5594 8.8008 10.576V10.72C8.80184 10.8226 8.78097 10.9241 8.73958 11.018C8.69819 11.1118 8.63724 11.1957 8.5608 11.264C8.51828 11.3172 8.46998 11.3655 8.4168 11.408C8.26 11.5014 8.07588 11.538 7.89529 11.5118C7.7147 11.4856 7.5486 11.3981 7.42481 11.264C7.3523 11.1935 7.29501 11.1088 7.25648 11.0152C7.21796 10.9217 7.19901 10.8212 7.2008 10.72C7.20102 10.661 7.20638 10.6021 7.2168 10.544C7.24236 10.3592 7.33804 10.1914 7.48399 10.0752C7.62995 9.95904 7.81499 9.90348 8.0008 9.92003Z" fill="white"/>
</g>
<defs>
<clipPath id="clip0_307_3">
<rect width="16" height="16" fill="white"/>
</clipPath>
</defs>
</svg>

<svg xmlns="http://www.w3.org/2000/svg" width="16" height="16" fill="none" viewBox="0 0 16 16"><g clip-path="url(#a)"><path fill="#ff6f00" d="M8 15A7 7 0 1 0 8 1a7 7 0 0 0 0 14"/><path fill="#fff" d="M7.2 4.8a.87.87 0 0 1 .225-.592A.85.85 0 0 1 8 4a.8.8 0 0 1 .56.208.84.84 0 0 1 .24.448V8.16a.72.72 0 0 1-.24.544 1 1 0 0 1-.144.144.796.796 0 0 1-.992-.144.74.74 0 0 1-.224-.544zM8 9.92a.8.8 0 0 1 .56.208.8.8 0 0 1 .225.4.2.2 0 0 1 .016.048v.144a.72.72 0 0 1-.24.544 1 1 0 0 1-.144.144.796.796 0 0 1-.992-.144.74.74 0 0 1-.224-.544q0-.089.016-.176A.726.726 0 0 1 8 9.92"/></g><defs><clipPath id="a"><path fill="#fff" d="M0 0h16v16H0z"/></clipPath></defs></svg>
